icons/svg/seamark/platform.svg

<?xml version="1.0" encoding="UTF-8" standalone="no"?>
<svg
   xmlns:dc="http://purl.org/dc/elements/1.1/"
   xmlns:cc="http://creativecommons.org/ns#"
   xmlns:rdf="http://www.w3.org/1999/02/22-rdf-syntax-ns#"
   xmlns:svg="http://www.w3.org/2000/svg"
   xmlns="http://www.w3.org/2000/svg"
   xmlns:sodipodi="http://sodipodi.sourceforge.net/DTD/sodipodi-0.dtd"
   xmlns:inkscape="http://www.inkscape.org/namespaces/inkscape"
   width="1060"
   height="1060"
   id="svg2"
   version="1.1"
   inkscape:version="0.48.4 r9939"
   sodipodi:docname="platform.svg">
  <defs
     id="defs13">
    <inkscape:path-effect
       effect="gears"
       id="path-effect3774"
       is_visible="true"
       teeth="6"
       phi="-1.2" />
    <inkscape:path-effect
       effect="bend_path"
       id="path-effect3772"
       is_visible="false"
       bendpath="m 95.790098,316.51174 c 144.429032,-206.42506 223.313032,-11.7428 339.548092,0"
       prop_scale="1.19"
       scale_y_rel="false"
       vertical="false"
       bendpath-nodetypes="cc" />
  </defs>
  <sodipodi:namedview
     pagecolor="#ffffff"
     bordercolor="#666666"
     borderopacity="1"
     objecttolerance="10"
     gridtolerance="10"
     guidetolerance="10"
     inkscape:pageopacity="0"
     inkscape:pageshadow="2"
     inkscape:window-width="1920"
     inkscape:window-height="1004"
     id="namedview11"
     showgrid="false"
     inkscape:zoom="0.35355339"
     inkscape:cx="798.16169"
     inkscape:cy="622.27533"
     inkscape:window-x="1680"
     inkscape:window-y="0"
     inkscape:window-maximized="1"
     inkscape:current-layer="svg2"
     inkscape:snap-object-midpoints="true"
     inkscape:snap-center="true" />
  <metadata
     id="metadata2975">image/svg+xmlen<rdf:RDF>
  <cc:Work
     rdf:about="">
    <dc:format>image/svg+xml</dc:format>
    <dc:type
       rdf:resource="http://purl.org/dc/dcmitype/StillImage" />
    <dc:title />
  </cc:Work>
</rdf:RDF>
</metadata>
  <path
     style="font-size:medium;font-style:normal;font-variant:normal;font-weight:normal;font-stretch:normal;text-indent:0;text-align:start;text-decoration:none;line-height:normal;letter-spacing:normal;word-spacing:normal;text-transform:none;direction:ltr;block-progression:tb;writing-mode:lr-tb;text-anchor:start;baseline-shift:baseline;opacity:0.42608696;color:#000000;fill:#acd8f3;fill-opacity:1;fill-rule:nonzero;stroke:#a35151;stroke-width:0;stroke-linecap:round;stroke-linejoin:miter;stroke-miterlimit:4;stroke-opacity:1;stroke-dashoffset:0;marker:none;visibility:visible;display:inline;overflow:visible;enable-background:accumulate;font-family:Sans;-inkscape-font-specification:Sans"
     d="m 106.97171,501.38847 c -13.295959,-0.002 -26.511095,5.46946 -35.912762,14.87112 -9.401667,9.40167 -14.873921,22.61681 -14.871123,35.91278 l 0,121.41098 c -0.0024,13.29597 5.469456,26.5111 14.871123,35.91276 9.401667,9.40168 22.616803,14.87392 35.912762,14.87113 l 50.56342,0 c 0.93166,12.62258 6.78638,24.81737 16.05362,33.43806 9.26724,8.62068 21.85288,13.57973 34.50979,13.59768 l 7.93729,0 0,55.41397 c -11.52833,53.84707 -9.7131,59.98079 -42.03819,71.80298 -5.90049,0 -10.03646,-0.66245 -17.27093,-2.71925 2.83792,0.80699 -33.65092,-2.15819 -30.72022,-2.49877 2.93071,-0.34059 -31.901068,10.91696 -29.323838,9.48064 2.577228,-1.43633 -25.349156,22.23002 -23.517867,19.91668 1.831289,-2.31333 -14.843725,30.32458 -14.037227,27.48651 0.806498,-2.83806 -2.15767,33.65087 -2.498773,30.72022 -0.341103,-2.93066 10.917416,31.90084 9.48064,29.32394 -1.436777,-2.5771 22.303827,25.2752 19.990187,23.4443 -2.313642,-1.8309 30.251218,14.9167 27.413008,14.1107 l 0,-0.073 c 16.55341,4.7062 37.05038,8.8192 60.48502,8.8192 36.55695,0 78.15156,-11.0059 116.70741,-36.6732 38.52257,25.6564 80.06023,36.6732 116.63392,36.6732 36.57372,0 78.11135,-11.0168 116.63392,-36.6732 38.55352,25.6643 80.14679,36.6732 116.70741,36.6732 39.32669,0 78.21431,-13.4902 114.06165,-37.5552 29.00661,21.2105 64.72656,37.331 107.15329,36.5263 31.17348,-0.5913 56.64235,-3.6576 87.82453,-15.1397 l 0,0.073 c -0.039,0.012 0.39357,-0.2262 0.36746,-0.2202 0.55637,-0.2059 1.05673,-0.3032 1.61686,-0.5145 l -0.14699,-0.3675 c 1.49277,-1.4211 27.69189,-16.5662 25.57567,-14.6987 -2.26989,2.0033 20.33759,-27.94103 19.03475,-25.20821 -1.30275,2.73281 7.77028,-33.67151 7.64338,-30.64671 -0.127,3.0248 -6.06661,-34.06709 -4.99757,-31.23467 1.06903,2.83242 -18.99745,-28.93808 -16.90349,-26.75157 2.09396,2.1865 -28.72672,-19.19635 -25.94315,-18.00587 2.78358,1.19048 -34.04163,-6.32426 -31.01418,-6.32043 2.82563,0.005 -26.88761,5.90111 -28.88288,5.80597 l -0.14699,-0.29397 c -1.53561,0.5793 -0.6196,0.52349 -1.91083,0.73494 -17.39016,2.84792 -19.14073,4.49179 -36.23221,-3.45419 -17.09146,-7.94599 -13.15756,-24.87238 -14.69866,-48.43211 l 0,-69.52469 8.08426,0 c 12.66917,3.8e-4 25.27393,-4.95039 34.55636,-13.5727 9.28243,-8.62229 15.14797,-20.82825 16.08055,-33.46303 l 31.67563,0 c 13.29599,0.002 26.51114,-5.46948 35.91282,-14.87115 9.40166,-9.40169 14.87392,-22.61687 14.87107,-35.91286 l 0,-121.41098 c 0.002,-13.29597 -5.46946,-26.51111 -14.87112,-35.91278 -9.40167,-9.40166 -22.61681,-14.87392 -35.91277,-14.87112 z m 366.80523,222.97877 111.78336,0 c 0.93166,12.62258 6.78638,24.81737 16.05363,33.43806 9.26724,8.62068 21.85287,13.57973 34.50979,13.59768 l 7.93727,0 0,103.40511 c 0.0212,6.93344 1.4817,13.85931 4.26261,20.21067 -5.50021,2.26658 -9.28111,3.60117 -7.6433,3.60117 -5.04459,0 -33.17214,-5.214 -51.73931,-32.0431 L 565.7171,832.99038 c -9.30587,-13.45209 -25.44301,-21.90183 -41.80021,-21.88746 -16.35719,0.0141 -32.47947,8.49242 -41.76171,21.96084 l -23.0769,33.51297 -0.0734,0.0734 c -14.35095,20.68897 -34.15836,28.39307 -44.83093,30.86719 0.5763,-3.05109 0.87192,-6.15514 0.88192,-9.26016 l 0,-116.85439 8.08426,0 c 12.66918,3.7e-4 25.27393,-4.9504 34.55635,-13.57271 9.28244,-8.62227 15.14798,-20.82824 16.08056,-33.46303 z"
     id="path4284"
     inkscape:connector-curvature="0"
     sodipodi:nodetypes="csccsccscccccsssssssccscscscscccccsssssscccszcccsccsccsccccscccccccscccccccscc" />
  <path
     style="color:#000000;fill:none;stroke:#001836;stroke-width:56.44287872;stroke-linecap:round;stroke-linejoin:miter;stroke-miterlimit:4;stroke-opacity:1;stroke-dasharray:none;stroke-dashoffset:0;marker:none;visibility:visible;display:inline;overflow:visible;enable-background:accumulate"
     inkscape:connector-curvature="0"
     stroke-miterlimit="10"
     d="m 134.78159,972.2024 c 11.69184,3.32406 24.35273,5.72051 38.88851,5.72051 32.40008,0 82.20099,-16.23389 116.68668,-66.09518 34.48558,49.86129 84.26545,66.09518 116.66549,66.09518 32.40013,0 82.17995,-16.23389 116.66558,-66.09518 34.5067,49.86129 84.28655,66.09518 116.68663,66.09518 32.40004,0 77.86125,-20.31866 116.66556,-66.09518 25.27179,32.98971 67.90641,65.75852 103.0739,65.09155 30.91085,-0.58623 36.38559,-0.45528 63.38157,-10.63922"
     id="path5"
     sodipodi:nodetypes="cscscscsc" />
  <rect
     style="color:#000000;fill:#001836;fill-opacity:1;stroke:none;stroke-width:24;marker:none;visibility:visible;display:inline;overflow:visible;enable-background:accumulate"
     id="rect4100"
     width="826.49329"
     height="121.39639"
     x="106.6319"
     y="552.49231" />
  <rect
     style="color:#000000;fill:#001836;fill-opacity:1;stroke:none;stroke-width:24;marker:none;visibility:visible;display:inline;overflow:visible;enable-background:accumulate"
     id="rect4100-5"
     width="215.02872"
     height="48.491005"
     x="207.75871"
     y="672.43341" />
  <rect
     style="color:#000000;fill:#001836;fill-opacity:1;stroke:none;stroke-width:24;marker:none;visibility:visible;display:inline;overflow:visible;enable-background:accumulate"
     id="rect4100-5-7"
     width="215.02872"
     height="48.491005"
     x="635.78375"
     y="672.43341" />
  <path
     style="color:#000000;fill:#001836;fill-opacity:1;stroke:none;stroke-width:24;marker:none;visibility:visible;display:inline;overflow:visible;enable-background:accumulate"
     d="m 266.52575,700.62889 0,126.48203 a 42.499414,42.499414 0 0 1 22.34196,-7.34934 42.499414,42.499414 0 0 1 36.3792,18.29985 l 23.2239,33.51296 a 42.499414,42.499414 0 0 1 0.0733,0 c 4.73416,6.84494 10.00934,12.42406 15.43359,16.97696 l 0,-187.92246 -97.45215,0 z"
     id="rect4100-5-0"
     inkscape:connector-curvature="0" />
  <path
     style="color:#000000;fill:#001836;fill-opacity:1;stroke:none;stroke-width:24;marker:none;visibility:visible;display:inline;overflow:visible;enable-background:accumulate"
     d="m 694.55091,700.62889 0,174.47317 c 2.89922,-2.80187 5.75647,-5.77344 8.52523,-9.03967 l 22.63595,-26.67808 a 42.499414,42.499414 0 0 1 66.14399,1.61685 l 0.14699,0.22036 0,-140.59275 -97.45216,0 z"
     id="rect4100-5-0-9"
     inkscape:connector-curvature="0" />
</svg>

<svg width="1060" height="1060" viewBox="0 0 1060 1060" fill="none" xmlns="http://www.w3.org/2000/svg">
<path opacity="0.426087" d="M106.972 501.389C93.6757 501.387 80.4605 506.858 71.0589 516.26C61.6572 525.661 56.1849 538.877 56.1877 552.173V673.584C56.1853 686.88 61.6572 700.095 71.0589 709.496C80.4605 718.898 93.6757 724.37 106.972 724.367H157.535C158.467 736.99 164.321 749.185 173.589 757.806C182.856 766.426 195.442 771.385 208.098 771.403H216.036V826.817C204.507 880.664 206.323 886.798 173.998 898.62C168.097 898.62 163.961 897.958 156.727 895.901C159.565 896.708 123.076 893.743 126.006 893.402C128.937 893.062 94.1053 904.319 96.6826 902.883C99.2598 901.446 71.3334 925.113 73.1647 922.799C74.996 920.486 58.321 953.124 59.1275 950.286C59.934 947.448 56.9698 983.937 56.6287 981.006C56.2876 978.076 67.5461 1012.91 66.1093 1010.33C64.6726 1007.75 88.4132 1035.61 86.0995 1033.77C83.7859 1031.94 116.351 1048.69 113.513 1047.89V1047.81C130.066 1052.52 150.563 1056.63 173.998 1056.63C210.555 1056.63 252.149 1045.63 290.705 1019.96C329.228 1045.61 370.765 1056.63 407.339 1056.63C443.913 1056.63 485.45 1045.61 523.973 1019.96C562.526 1045.62 604.12 1056.63 640.68 1056.63C680.007 1056.63 718.895 1043.14 754.742 1019.08C783.748 1040.29 819.468 1056.41 861.895 1055.6C893.069 1055.01 918.538 1051.94 949.72 1040.46V1040.54C949.681 1040.55 950.113 1040.31 950.087 1040.32C950.644 1040.11 951.144 1040.01 951.704 1039.8L951.557 1039.43C953.05 1038.01 979.249 1022.87 977.133 1024.73C974.863 1026.74 997.47 996.794 996.167 999.527C994.865 1002.26 1003.94 965.855 1003.81 968.88C1003.68 971.905 997.744 934.813 998.813 937.645C999.882 940.478 979.816 908.707 981.91 910.894C984.004 913.08 953.183 891.697 955.967 892.888C958.75 894.078 921.925 886.564 924.952 886.567C927.778 886.572 898.065 892.468 896.07 892.373L895.923 892.079C894.387 892.659 895.303 892.603 894.012 892.814C876.622 895.662 874.871 897.306 857.78 889.36C840.688 881.414 844.622 864.488 843.081 840.928V771.403H851.165C863.834 771.404 876.439 766.453 885.721 757.831C895.004 749.208 900.869 737.002 901.802 724.368H933.478C946.774 724.37 959.989 718.898 969.391 709.496C978.792 700.095 984.264 686.88 984.262 673.584V552.173C984.264 538.877 978.792 525.661 969.39 516.26C959.989 506.858 946.774 501.386 933.478 501.389H106.972ZM473.777 724.367H585.56C586.492 736.99 592.347 749.185 601.614 757.806C610.881 766.426 623.467 771.385 636.124 771.403H644.061V874.808C644.082 881.742 645.543 888.668 648.324 895.019C642.823 897.286 639.042 898.62 640.68 898.62C635.636 898.62 607.508 893.406 588.941 866.577L565.717 832.991C556.411 819.538 540.274 811.089 523.917 811.103C507.56 811.117 491.437 819.596 482.155 833.064L459.078 866.577L459.005 866.65C444.654 887.339 424.846 895.043 414.174 897.518C414.75 894.466 415.046 891.362 415.056 888.257V771.403H423.14C435.809 771.403 448.414 766.453 457.696 757.83C466.979 749.208 472.844 737.002 473.777 724.367L473.777 724.367Z" fill="#ACD8F3"/>
<path d="M134.781 972.203C146.473 975.527 159.134 977.923 173.67 977.923C206.07 977.923 255.871 961.689 290.357 911.828C324.842 961.689 374.622 977.923 407.022 977.923C439.422 977.923 489.202 961.689 523.688 911.828C558.194 961.689 607.974 977.923 640.374 977.923C672.774 977.923 718.236 957.605 757.04 911.828C782.312 944.818 824.946 977.587 860.114 976.92C891.025 976.333 896.499 976.464 923.495 966.28" stroke="#001836" stroke-width="56.4429" stroke-miterlimit="10" stroke-linecap="round"/>
<path d="M933.125 552.492H106.632V673.889H933.125V552.492Z" fill="#001836"/>
<path d="M422.788 672.434H207.759V720.925H422.788V672.434Z" fill="#001836"/>
<path d="M850.812 672.434H635.784V720.925H850.812V672.434Z" fill="#001836"/>
<path d="M266.526 700.629V827.111C273.134 822.608 280.877 820.061 288.868 819.762C295.979 819.523 303.036 821.073 309.392 824.271C315.748 827.468 321.2 832.21 325.247 838.061L348.471 871.574C348.495 871.574 348.52 871.574 348.544 871.574C353.278 878.419 358.554 883.998 363.978 888.551V700.629H266.526H266.526Z" fill="#001836"/>
<path d="M694.551 700.629V875.102C697.45 872.3 700.307 869.329 703.076 866.062L725.712 839.384C729.815 834.544 734.95 830.684 740.739 828.087C746.529 825.49 752.827 824.222 759.171 824.378C765.514 824.533 771.742 826.106 777.398 828.983C783.054 831.859 787.994 835.966 791.856 841.001L792.003 841.222V700.629H694.551V700.629Z" fill="#001836"/>
</svg>
